X:1
T:Title
%%score { ( 1 4 5 ) | ( 2 3 ) }
L:1/8
M:4/4
K:Bb
V:1 treble nm="Grand Piano"
V:4 treble 
V:5 treble 
V:2 bass 
V:3 bass 
V:1
 z4 z2 z[Q:1/4=100] E | G>G G>G G3 [F_A] | [^FA]>[GB] [_Ac]>[GB] [EG]3 [GB] | %3
 [GB]>[F_A] [DF][FA] [Ac]>[GB] [EG][GB] | [GB]>[F_A] [DF]>[FA] G2 BE | G>G G>G G3 [F_A] | %6
 [^FA]>[GB] [_Ac]>[GB] G3 G | G>F F2 G>F FF |[M:13/16] G>GA>AB-[AB]3/2 |[M:1/4] c>d | %10
[M:4/4] z2 z d z2 z G | [GB]4 [B,GB]4[K:bass][K:treble] | F2 e2 d2 c2 | %13
[M:17/16] B-<BB-<B z/ z/ z/ z/ z/ z/ z/ z |[M:4/4] [Ge]>[Gd] [Ge]>[Gd] [Ge]3 [B,EG] | %15
 [B,GB]>[B,GB] [B,GB]>[B,^FA] [B,GB]3 [EGB] | [E_Ac]>[EBd] [Ece][cf] [ce][=Bd][ce]c | %17
[M:7/8] z2 f2 z z2 |] %18
V:2
 z4 z2 z [E,G,] | [E,B,E]>[E,B,E] [E,CE]>[E,CE] [E,B,E]3 [E,B,] | %2
 [E,E]>[E,E] [E,E]>[E,E] [E,B,]3 [E,B,] | [B,,B,]>[B,,B,] [B,,B,]2 [E,B,]>[E,B,] [E,B,][E,B,] | %4
 z4 [B,E]2 z2 | [E,B,E]>[E,E] [E,DE]>[E,CE] [E,B,E]3 [E,B,] | %6
 [E,E]>[E,E] [E,E]>[E,E] [E,B,E]3 [E,B,E] | %7
 [F,B,E]>[F,A,E] [F,A,E]2 [F,B,E]>[F,A,E] [F,A,E][F,A,E] | %8
[M:13/16] [F,B,E]>[F,B,E][F,CE]3/2.[F,CE] z/ D3/2 |[M:1/4][K:treble] [B,D_A]>[B,A] | %10
[M:4/4][K:bass] [E,B,]2 z G [E,B,]2 z E | E,2 z ^F E,2 z [E,B,E] | %12
 [F,B,D]>[F,B,] [F,A,G]>[F,A,] [F,B,F]>[F,B,] [F,A,E]>[F,A,] | %13
[M:17/16] [B,D]>B,[G,B,E]>[G,B,][_A,E]-<[A,E][F,B,]3/2[B,,B,] | %14
[M:4/4] [E,B,]>[E,B,] [B,,B,]>[B,,B,] B,2- [B,,B,]B,, | E,>E, B,,>B,, E,3 E, | %16
 _A,>A, A,[K:treble][A,E] [A,E][A,E][A,E][A,E_A] |[M:7/8] [B,EG]2[K:bass] D z [E,B,]3 |] %18
V:3
 x8 | x8 | x8 | x8 | [B,,B,]>[B,,B,] [B,,B,]>[B,,B,] E,2- [E,EG][E,G,] | x8 | x8 | x8 | %8
[M:13/16] z/ z/ z/ z/ z/ z/ z B,,/-B,,-<B,, |[M:1/4][K:treble] x2 | %10
[M:4/4][K:bass] z2 B,,2 z2 B,,2 | z2 B,,2 z4 | x8 |[M:17/16] x17/2 |[M:4/4] z4 E,2 z2 | x8 | %16
 x3[K:treble] x5 |[M:7/8] z2[K:bass] [B,,_A]2 z z2 |] %18
V:4
 x8 | x8 | x8 | x8 | x8 | x8 | x8 | x8 |[M:13/16] z/ z/ z/ z/ z/ z/ z .[B,D]3/2 z |[M:1/4] x2 | %10
[M:4/4] [Ge]4 [Ge]4 | B,2 z A z2[K:bass] B,,[K:treble]G | z z/ D/ z z/ G/ z z/ F/ z z/ E/ | %13
[M:17/16] z/ z D/ z/ z E/c-<c[_Ad]3/2[Ad] |[M:4/4] x8 | x8 | x8 |[M:7/8] B2 z B, [Ge]3 |] %18
V:5
 x8 | x8 | x8 | x8 | x8 | x8 | x8 | x8 |[M:13/16] x13/2 |[M:1/4] x2 |[M:4/4] z2 B,2 z2 B,2 | %11
 z2 B,2 z4[K:bass][K:treble] | x8 |[M:17/16] x17/2 |[M:4/4] x8 | x8 | x8 |[M:7/8] x7 |] %18

